assets/icons/mailru.svg

<svg width="48" height="48" viewBox="0 0 48 48" fill="none" xmlns="http://www.w3.org/2000/svg">
<path d="M0 24C0 10.7452 10.7452 0 24 0C37.2548 0 48 10.7452 48 24C48 37.2548 37.2548 48 24 48C10.7452 48 0 37.2548 0 24Z" fill="#005FF9"/>
<path fill-rule="evenodd" clip-rule="evenodd" d="M10 23.9603C10 16.2625 16.2802 10 23.9998 10C31.7194 10 37.9997 16.2625 37.9997 23.9603C37.9997 25.0508 37.9087 25.9336 37.7048 26.8197L37.7018 26.8344C37.7013 26.837 37.6001 27.2455 37.5442 27.4237C37.1982 28.5272 36.5718 29.4463 35.7325 30.0815C34.9186 30.6977 33.9094 31.0371 32.891 31.0371C32.7652 31.0371 32.6385 31.032 32.5144 31.0221C31.0682 30.9063 29.7966 30.1474 29.0168 28.9373C27.6757 30.282 25.8964 31.0218 23.9998 31.0218C20.0951 31.0218 16.9184 27.854 16.9184 23.9603C16.9184 20.0666 20.0951 16.8989 23.9998 16.8989C27.9045 16.8989 31.0812 20.0666 31.0812 23.9603V26.2366C31.087 27.5648 31.9808 28.1077 32.7444 28.1691C33.5041 28.2276 34.5152 27.7863 34.8674 26.3461C35.0411 25.5562 35.1294 24.7533 35.1294 23.9603C35.1294 17.8407 30.1367 12.8621 23.9998 12.8621C17.8629 12.8621 12.8703 17.8407 12.8703 23.9603C12.8703 30.0798 17.8629 35.0585 23.9998 35.0585C26.136 35.0585 28.2136 34.4501 30.0079 33.2991L30.0401 33.2784L31.9261 35.465L31.8856 35.4926C29.5549 37.0811 26.828 37.9207 23.9998 37.9207C16.2802 37.9207 10 31.6581 10 23.9603ZM23.9998 28.1596C26.3218 28.1596 28.2109 26.2758 28.2109 23.9603C28.2109 21.6448 26.3218 19.7612 23.9998 19.7612C21.6777 19.7612 19.7887 21.6448 19.7887 23.9603C19.7887 26.2758 21.6777 28.1596 23.9998 28.1596Z" fill="#FF9E00"/>
</svg>

<svg width="48" height="48" fill="none" xmlns="http://www.w3.org/2000/svg"><path d="M0 24C0 10.745 10.745 0 24 0s24 10.745 24 24-10.745 24-24 24S0 37.255 0 24z" fill="#005FF9"/><path fill-rule="evenodd" clip-rule="evenodd" d="M10 23.96C10 16.262 16.28 10 24 10s14 6.262 14 13.96c0 1.09-.091 1.974-.295 2.86l-.003.014c0 .003-.102.412-.158.59-.346 1.103-.972 2.022-1.811 2.657a4.736 4.736 0 01-3.219.941 4.554 4.554 0 01-3.497-2.085A7.035 7.035 0 0124 31.022c-3.905 0-7.082-3.168-7.082-7.062 0-3.893 3.177-7.061 7.082-7.061 3.904 0 7.081 3.168 7.081 7.061v2.277c.006 1.328.9 1.87 1.663 1.932.76.059 1.771-.383 2.123-1.823.174-.79.262-1.593.262-2.386 0-6.12-4.992-11.098-11.13-11.098-6.136 0-11.129 4.979-11.129 11.098 0 6.12 4.993 11.099 11.13 11.099 2.136 0 4.214-.609 6.008-1.76l.032-.02 1.886 2.186-.04.028A13.946 13.946 0 0124 37.92c-7.72 0-14-6.263-14-13.96zm14 4.2a4.21 4.21 0 004.21-4.2A4.21 4.21 0 0024 19.761a4.21 4.21 0 00-4.211 4.2 4.21 4.21 0 004.21 4.199z" fill="#FF9E00"/></svg>
